public/icons/favicon-light.svg

<svg width="32" height="32" viewBox="0 0 32 32" fill="none" xmlns="http://www.w3.org/2000/svg">
  <rect width="32" height="32" rx="16"/>
  <rect width="32" height="32" rx="16"/>
  <path d="M16.2377 10.6065C13.8378 10.6065 12.4953 10.0169 10.1335 9.98263C10.054 9.98179 10.0143 9.88909 10.073 9.83731C11.7576 8.34742 15.004 8 16.1323 8C17.08 8 20.2236 8.27476 22.0533 9.82729C22.1155 9.87991 22.074 9.97595 21.9911 9.97428C19.6232 9.93753 19.606 10.6056 16.2368 10.6056L16.2377 10.6065Z" fill="black"/>
  <path fill-rule="evenodd" clip-rule="evenodd" d="M12.5309 22.7767H5.36502C5.22504 22.7767 5.13864 22.6297 5.20344 22.5103C6.03536 20.9853 5.73645 19.9105 5.40213 18.7104C5.15505 17.8226 4.88812 16.8664 5.0488 15.6095C5.47815 13.1884 6.63836 11.9758 8.97947 11.3937C10.1941 11.0914 11.6393 11.3235 13.1373 11.5641C14.1749 11.7302 15.2365 11.9006 16.2654 11.9006C17.0326 11.9006 17.9595 11.7586 18.9271 11.6108C20.4483 11.3778 22.0699 11.1306 23.3251 11.3937C25.7405 11.9006 27.0328 13.2836 27.1659 15.4809C27.254 16.944 27.0052 17.978 26.7927 18.859C26.4894 20.1159 26.2623 21.0621 27.1961 22.4978C27.2739 22.6172 27.1883 22.7775 27.0424 22.7775H19.702C19.5378 22.7775 19.3944 22.6723 19.3409 22.522C19.0783 21.7896 18.1574 19.7318 16.1168 19.7318C14.0764 19.7318 13.1555 21.7896 12.892 22.522C12.8384 22.6715 12.6941 22.7775 12.5309 22.7775V22.7767ZM11.483 19.3476C10.0481 20.1635 8.18212 20.151 7.45821 18.5392C6.63661 16.7077 7.43486 14.1188 9.74833 13.4782C12.1715 12.8076 14.5161 13.135 14.428 14.9013C14.3623 16.2141 13.1607 18.3938 11.483 19.3468V19.3476ZM24.8896 18.5392C24.1665 20.151 22.2996 20.1627 20.8648 19.3476C19.1871 18.3938 17.9855 16.2141 17.9198 14.9021C17.8317 13.1358 20.1762 12.8084 22.5994 13.479C24.912 14.1196 25.7111 16.7085 24.8896 18.54V18.5392Z" fill="black"/>
</svg>

<symbol id="icon-favicon-light" viewBox="0 0 32 32">
  <path fill="#000" style="fill: var(--color2, #000)" d="M16.238 10.607c-2.4 0-3.742-0.59-6.104-0.624-0.079-0.001-0.119-0.094-0.060-0.145 1.685-1.49 4.931-1.837 6.059-1.837 0.948 0 4.091 0.275 5.921 1.827 0.062 0.053 0.021 0.149-0.062 0.147-2.368-0.037-2.385 0.631-5.754 0.631l0.001 0.001z"></path>
  <path fill="#000" style="fill: var(--color2, #000)" d="M12.531 22.777v0.001c0.163 0 0.307-0.106 0.361-0.256 0.264-0.732 1.184-2.79 3.225-2.79s2.962 2.058 3.224 2.79c0.053 0.15 0.197 0.256 0.361 0.256h7.34c0.146 0 0.232-0.16 0.154-0.28-0.934-1.436-0.707-2.382-0.403-3.639 0.212-0.881 0.461-1.915 0.373-3.378-0.133-2.197-1.425-3.58-3.841-4.087-1.255-0.263-2.877-0.016-4.398 0.217-0.968 0.148-1.895 0.29-2.662 0.29-1.029 0-2.091-0.17-3.128-0.337-1.498-0.241-2.943-0.473-4.158-0.17-2.341 0.582-3.501 1.795-3.931 4.216-0.161 1.257 0.106 2.213 0.353 3.101 0.334 1.2 0.633 2.275-0.199 3.8-0.065 0.119 0.022 0.266 0.162 0.266h7.166zM11.483 19.348c-1.435 0.816-3.301 0.803-4.025-0.808-0.822-1.831-0.023-4.42 2.29-5.061 2.423-0.671 4.768-0.343 4.68 1.423-0.066 1.313-1.267 3.492-2.945 4.445v0.001zM24.89 18.539c-0.723 1.612-2.59 1.623-4.025 0.808-1.678-0.954-2.879-3.134-2.945-4.445-0.088-1.766 2.256-2.094 4.68-1.423 2.313 0.641 3.112 3.229 2.29 5.061v-0.001z"></path>
</symbol>
